X:1
T:Wigtown, CM
T:Wigtown, CM
T:Scottish Psalter, 1635
T:Public Domain Courtesy of the Cyber Hymnal™
C:Scottish Psalter, 1635
Z:Public Domain
Z:Courtesy of the Cyber Hymnal™
%%score ( 1 2 ) ( 3 4 )
L:1/8
Q:1/4=115
M:4/4
K:F
V:1 treble 
V:2 treble 
V:3 bass 
V:4 bass 
V:1
 [CA]4 [CA]2 [DA]2 | [DB]3 [FA] (GF) [EG]2 | F4 [FA]4 | [CA]2 [CG]2 [CA]2 [FB]2 | [Ec]8 | %5
 [_EG]4 [EG]2 [FA]2 | [Dd]2 [Ec]2 B2 A2 | [EG]4 [CG]4 | [CA]2 [DB]2 G2 z x3 | [A,F]8 |] %10
V:2
 x8 | x4 D2 x2 | F4 x4 | x8 | x8 | x8 | x4 (FC) (CD) | x8 | x4 C3 (G2 B,) | x8 |] %10
V:3
 [F,C]4 [F,A,]2 [D,F,]2 | [G,,G,]3 [A,,C] ([B,,B,][D,A,]) (CB,) | [F,A,]4 [F,C]4 | %3
 F,2 [E,G,]2 F,2 [D,F,]2 | [C,G,]8 | [C,C]4 [C,C]2 [F,C]2 | [B,,B,]2 [C,A,]2 [D,A,][E,G,] (A,B,) | %7
 [C,C]4 [E,C]4 | [F,A,]2 [B,,F,]2 [C,F,]2 [C,E,]2 x2 | [F,,F,]8 |] %10
V:4
 x8 | x6 C,2 | x8 | F,2 (F,E,) x4 | x8 | x8 | x6 F,2 | x8 | x10 | x8 |] %10

